X: 1
T: Jeux D'enfants
M: 3/4
L: 1/8
R: mazurka
K: Gmin
zB/A/|G^F GA Bc|d^c dg ab|ba ge gb|d4-de/d/|
cd ec BA|Bc dg ab|ba g=e ^fg|^f=e dc BA|
G^F GA Bc|d^c dg ab|ba ge gb|f4 f2|
ef ge d^c|d^f gd cB|ce dc BA|G2G2:|z2|
EF GA BG|AB cd ec|de fg ab|f6|
gf ez zB|fe dz zB|ed cB AG|A4 A2|
EF GA BG|AB cd ec|de fg ab|d'4 d'2|
e'd'c'z zg|d'c' az zd|c'b .a2 b2|g2 z2||
